actions/24/process-stop.svg

<?xml version="1.0" encoding="UTF-8" standalone="no"?>
<svg
   xmlns:dc="http://purl.org/dc/elements/1.1/"
   xmlns:cc="http://creativecommons.org/ns#"
   xmlns:rdf="http://www.w3.org/1999/02/22-rdf-syntax-ns#"
   xmlns:svg="http://www.w3.org/2000/svg"
   xmlns="http://www.w3.org/2000/svg"
   xmlns:xlink="http://www.w3.org/1999/xlink"
   version="1.0"
   width="24"
   height="24"
   id="svg2">
  <metadata
     id="metadata31">
    <rdf:RDF>
      <cc:Work
         rdf:about="">
        <dc:format>image/svg+xml</dc:format>
        <dc:type
           rdf:resource="http://purl.org/dc/dcmitype/StillImage" />
        <dc:title />
      </cc:Work>
    </rdf:RDF>
  </metadata>
  <defs
     id="defs4">
    <linearGradient
       id="linearGradient2867-449-88-871-390-598-476-591-434-148-57-177-641-289-620-227-114-444-680-744-4-1-5-5-1">
      <stop
         id="stop5430-5-0-9-9-4"
         style="stop-color:#737373;stop-opacity:1"
         offset="0" />
      <stop
         id="stop5432-2-0-0-4-6"
         style="stop-color:#636363;stop-opacity:1"
         offset="0.26238" />
      <stop
         id="stop5434-9-6-8-4-9"
         style="stop-color:#4b4b4b;stop-opacity:1"
         offset="0.704952" />
      <stop
         id="stop5436-2-7-0-2-5"
         style="stop-color:#3f3f3f;stop-opacity:1"
         offset="1" />
    </linearGradient>
    <radialGradient
       cx="16.202444"
       cy="-19.005346"
       r="19.99999"
       fx="16.202444"
       fy="-19.005346"
       id="radialGradient4075"
       xlink:href="#linearGradient2867-449-88-871-390-598-476-591-434-148-57-177-641-289-620-227-114-444-680-744-4-1-5-6"
       gradientUnits="userSpaceOnUse"
       gradientTransform="matrix(0,1.7142863,1.7418575,0,44.771221,-20.233914)" />
    <linearGradient
       id="linearGradient2867-449-88-871-390-598-476-591-434-148-57-177-641-289-620-227-114-444-680-744-4-1-5-6">
      <stop
         id="stop5430-5-0-9-4"
         style="stop-color:#737373;stop-opacity:1"
         offset="0" />
      <stop
         id="stop5432-2-0-0-4-5"
         style="stop-color:#636363;stop-opacity:1"
         offset="0.26238" />
      <stop
         id="stop5434-9-6-8-5"
         style="stop-color:#4b4b4b;stop-opacity:1"
         offset="0.704952" />
      <stop
         id="stop5436-2-7-0-0"
         style="stop-color:#3f3f3f;stop-opacity:1"
         offset="1" />
    </linearGradient>
    <radialGradient
       cx="16.202444"
       cy="-19.005346"
       r="19.99999"
       fx="16.202444"
       fy="-19.005346"
       id="radialGradient3278"
       xlink:href="#linearGradient2867-449-88-871-390-598-476-591-434-148-57-177-641-289-620-227-114-444-680-744-4-1-5-5-1"
       gradientUnits="userSpaceOnUse"
       gradientTransform="matrix(0,1.5000006,1.5241254,0,40.665768,-23.490064)" />
    <radialGradient
       cx="16.202444"
       cy="-19.005346"
       r="19.99999"
       fx="16.202444"
       fy="-19.005346"
       id="radialGradient3278-9"
       xlink:href="#linearGradient2867-449-88-871-390-598-476-591-434-148-57-177-641-289-620-227-114-444-680-744-4-1-5-5-1-55"
       gradientUnits="userSpaceOnUse"
       gradientTransform="matrix(1.0166597,1.0000037,0.97650205,-1.0748863,10.941487,-43.985245)" />
    <linearGradient
       id="linearGradient2867-449-88-871-390-598-476-591-434-148-57-177-641-289-620-227-114-444-680-744-4-1-5-5-1-55">
      <stop
         id="stop5430-5-0-9-9-4-6"
         style="stop-color:#737373;stop-opacity:1"
         offset="0" />
      <stop
         id="stop5432-2-0-0-4-6-7"
         style="stop-color:#636363;stop-opacity:1"
         offset="0.26238" />
      <stop
         id="stop5434-9-6-8-4-9-3"
         style="stop-color:#4b4b4b;stop-opacity:1"
         offset="0.704952" />
      <stop
         id="stop5436-2-7-0-2-5-7"
         style="stop-color:#3f3f3f;stop-opacity:1"
         offset="1" />
    </linearGradient>
    <linearGradient
       id="linearGradient2867-449-88-871-390-598-476-591-434-148-57-177-641-289-620-227-114-444-680-744-4-1-5-5-1-55-0">
      <stop
         id="stop5430-5-0-9-9-4-6-5"
         style="stop-color:#737373;stop-opacity:1"
         offset="0" />
      <stop
         id="stop5432-2-0-0-4-6-7-6"
         style="stop-color:#636363;stop-opacity:1"
         offset="0.26238" />
      <stop
         id="stop5434-9-6-8-4-9-3-8"
         style="stop-color:#4b4b4b;stop-opacity:1"
         offset="0.704952" />
      <stop
         id="stop5436-2-7-0-2-5-7-1"
         style="stop-color:#3f3f3f;stop-opacity:1"
         offset="1" />
    </linearGradient>
    <radialGradient
       cx="16.202444"
       cy="-19.005346"
       r="19.99999"
       fx="16.202444"
       fy="-19.005346"
       id="radialGradient4106"
       xlink:href="#linearGradient2867-449-88-871-390-598-476-591-434-148-57-177-641-289-620-227-114-444-680-744-4-1-5-5-1-55-0"
       gradientUnits="userSpaceOnUse"
       gradientTransform="matrix(0,1.426045,1.4522179,0,22.218363,-39.273003)" />
    <radialGradient
       cx="16.202444"
       cy="-19.005346"
       r="19.99999"
       fx="16.202444"
       fy="-19.005346"
       id="radialGradient4139"
       xlink:href="#linearGradient2867-449-88-871-390-598-476-591-434-148-57-177-641-289-620-227-114-444-680-744-4-1-5-6"
       gradientUnits="userSpaceOnUse"
       gradientTransform="matrix(0,1.7142863,1.7418575,0,44.771221,-20.233914)" />
    <radialGradient
       cx="16.202444"
       cy="-19.005346"
       r="19.99999"
       fx="16.202444"
       fy="-19.005346"
       id="radialGradient4144"
       xlink:href="#linearGradient2867-449-88-871-390-598-476-591-434-148-57-177-641-289-620-227-114-444-680-744-4-1-5-6"
       gradientUnits="userSpaceOnUse"
       gradientTransform="matrix(0,1.7142863,1.7418575,0,44.851054,-28.368044)" />
    <radialGradient
       cx="16.202444"
       cy="-19.005346"
       r="19.99999"
       fx="16.202444"
       fy="-19.005346"
       id="radialGradient4144-1"
       xlink:href="#linearGradient2867-449-88-871-390-598-476-591-434-148-57-177-641-289-620-227-114-444-680-744-4-1-5-6-3"
       gradientUnits="userSpaceOnUse"
       gradientTransform="matrix(0,1.7142863,1.7418575,0,44.851054,-28.368044)" />
    <linearGradient
       id="linearGradient2867-449-88-871-390-598-476-591-434-148-57-177-641-289-620-227-114-444-680-744-4-1-5-6-3">
      <stop
         id="stop5430-5-0-9-4-4"
         style="stop-color:#737373;stop-opacity:1"
         offset="0" />
      <stop
         id="stop5432-2-0-0-4-5-7"
         style="stop-color:#636363;stop-opacity:1"
         offset="0.26238" />
      <stop
         id="stop5434-9-6-8-5-6"
         style="stop-color:#4b4b4b;stop-opacity:1"
         offset="0.704952" />
      <stop
         id="stop5436-2-7-0-0-0"
         style="stop-color:#3f3f3f;stop-opacity:1"
         offset="1" />
    </linearGradient>
  </defs>
  <path
     d="m -20.440678,4.1949155 -8.84375,8.8437505 1.6875,1.71875 1.15625,-1.15625 0,6.593749 5,0 0,-4 c 0,-0.553999 0.446,-0.999999 1,-0.999999 0.554,0 1,0.446 1,0.999999 l 0,4 5,0 0,-6.593749 1.15625,1.15625 1.6875,-1.71875 -8.84375,-8.8437505 z m 4,1 0,1.53125 2,2.09375 0,-3.625 -2,0 z"
     id="path2998-2"
     style="opacity:0.35;color:#000000;fill:#ffffff;fill-opacity:1;fill-rule:nonzero;stroke:none;stroke-width:1;marker:none;visibility:visible;display:inline;overflow:visible;enable-background:accumulate" />
  <path
     d="M 7.1875,5 C 6.9435121,5.0068659 6.7127478,5.1127159 6.53125,5.3125 l -1.25,1.375 C 4.9182543,7.0870681 4.9276712,7.7152259 5.3125,8.09375 L 9.28125,12 5.3125,15.90625 C 4.9276712,16.284774 4.9182543,16.912932 5.28125,17.3125 l 1.25,1.375 c 0.3629957,0.399568 0.9589212,0.409774 1.34375,0.03125 l 4.125,-4.0625 4.125,4.0625 c 0.384829,0.378524 0.980754,0.368318 1.34375,-0.03125 l 1.25,-1.375 c 0.362996,-0.399568 0.353579,-1.027726 -0.03125,-1.40625 L 14.71875,12 18.6875,8.09375 C 19.072329,7.7152259 19.081746,7.0870681 18.71875,6.6875 l -1.25,-1.375 C 17.105754,4.9129319 16.509829,4.9027259 16.125,5.28125 L 12,9.34375 7.875,5.28125 C 7.6825856,5.0919879 7.4314879,4.9931341 7.1875,5 z"
     id="rect3280"
     style="color:#000000;fill:url(#radialGradient4144-1);fill-opacity:1;fill-rule:nonzero;stroke:none;stroke-width:1;marker:none;visibility:visible;display:inline;overflow:visible;enable-background:accumulate" />
  <path
     d="m 7.1875,5.5 c -0.1060184,0.00298 -0.1839437,0.04914 -0.28125,0.15625 l -1.25,1.375 c -0.1815814,0.199876 -0.1871552,0.503411 0,0.6875 L 9.625,11.625 a 0.50886981,0.50886981 0 0 1 0,0.75 l -3.96875,3.90625 c -0.187155,0.184089 -0.1815812,0.487624 0,0.6875 l 1.25,1.375 c 0.1795254,0.197613 0.4306498,0.191166 0.625,0 l 4.125,-4.0625 a 0.50886981,0.50886981 0 0 1 0.6875,0 l 4.125,4.0625 c 0.194351,0.191166 0.445474,0.197613 0.625,0 l 1.25,-1.375 c 0.181581,-0.199876 0.187155,-0.503411 0,-0.6875 L 14.375,12.375 a 0.50886981,0.50886981 0 0 1 0,-0.75 l 3.96875,-3.90625 c 0.187155,-0.1840891 0.181582,-0.487624 0,-0.6875 l -1.25,-1.375 c -0.179526,-0.1976133 -0.430649,-0.1911664 -0.625,0 l -4.125,4.0625 a 0.50886981,0.50886981 0 0 1 -0.6875,0 l -4.125,-4.0625 C 7.4334604,5.5600625 7.284404,5.4972731 7.1875,5.5 z"
     id="path4347"
     style="opacity:0.1;color:#000000;fill:none;stroke:#000000;stroke-width:1;stroke-linecap:round;stroke-linejoin:round;stroke-miterlimit:4;stroke-opacity:1;stroke-dasharray:none;stroke-dashoffset:0;marker:none;visibility:visible;display:inline;overflow:visible;enable-background:accumulate" />
  <path
     d="M 17.623596,7.7107007 16.76426,6.7725857 12.860987,10.597576 c -0.298366,0.330607 -1.467332,0.26487 -1.693023,0.03918 L 7.2465716,6.7568158 6.3769361,7.7191219"
     id="path7076"
     style="font-size:59.90107727px;font-style:normal;font-variant:normal;font-weight:bold;font-stretch:normal;text-align:start;line-height:125%;writing-mode:lr-tb;text-anchor:start;opacity:0.02999998;color:#000000;fill:none;stroke:#000000;stroke-width:1;stroke-linecap:butt;stroke-linejoin:miter;stroke-miterlimit:4;stroke-opacity:1;stroke-dasharray:none;stroke-dashoffset:0;marker:none;visibility:visible;display:inline;overflow:visible;enable-background:accumulate;font-family:Bitstream Vera Sans" />
  <path
     d="m 17.646626,16.981451 -4.175112,-4.10451 m -2.860795,-0.04092 -4.250738,4.138527"
     id="path3165"
     style="font-size:59.90107727px;font-style:normal;font-variant:normal;font-weight:bold;font-stretch:normal;text-align:start;line-height:125%;writing-mode:lr-tb;text-anchor:start;opacity:0.02999998;color:#000000;fill:none;stroke:#000000;stroke-width:1;stroke-linecap:butt;stroke-linejoin:miter;stroke-miterlimit:4;stroke-opacity:1;stroke-dasharray:none;stroke-dashoffset:0;marker:none;visibility:visible;display:inline;overflow:visible;enable-background:accumulate;font-family:Bitstream Vera Sans" />
</svg>

<svg xmlns="http://www.w3.org/2000/svg" xmlns:xlink="http://www.w3.org/1999/xlink" viewBox="0 0 24 24"><defs><radialGradient cx="16.202" cy="-19.005" r="20" fx="16.202" fy="-19.005" id="b" xlink:href="#a" gradientUnits="userSpaceOnUse" gradientTransform="matrix(0 1.7143 1.74186 0 44.85 -28.368)"/><linearGradient id="a"><stop offset="0" stop-color="#737373"/><stop offset=".262" stop-color="#636363"/><stop offset=".705" stop-color="#4b4b4b"/><stop offset="1" stop-color="#3f3f3f"/></linearGradient></defs><path d="M-20.44 4.195l-8.844 8.844 1.687 1.71 1.156-1.158v6.594h5v-4c0-.554.44-1 1-1a1 1 0 0 1 1 1v4h5V13.6l1.15 1.157 1.684-1.718-8.844-8.85zm4 1v1.53l2 2.095V5.195h-2z" opacity=".35" color="#000" fill="#fff" overflow="visible"/><path d="M7.188 5a.913.913 0 0 0-.657.313L5.28 6.688c-.362.4-.352 1.027.032 1.406L9.282 12l-3.97 3.906a1.022 1.022 0 0 0-.03 1.406l1.25 1.375a.92.92 0 0 0 1.344.032L12 14.65l4.125 4.063a.92.92 0 0 0 1.344-.032l1.25-1.37c.36-.4.35-1.03-.04-1.407L14.71 12l3.97-3.906a1.02 1.02 0 0 0 .03-1.406l-1.25-1.375a.92.92 0 0 0-1.34-.032L12 9.35 7.875 5.28A.952.952 0 0 0 7.187 5z" color="#000" fill="url(#b)" overflow="visible"/><path d="M7.188 5.5c-.107.003-.184.05-.282.156L5.656 7.03a.496.496 0 0 0 0 .69l3.97 3.905a.51.51 0 0 1 0 .75l-3.97 3.906a.496.496 0 0 0 0 .69l1.25 1.38c.18.2.43.19.625 0l4.13-4.06a.51.51 0 0 1 .69 0l4.128 4.064c.194.19.445.197.625 0l1.25-1.375a.496.496 0 0 0 0-.69l-3.97-3.905a.51.51 0 0 1 0-.75l3.97-3.906a.496.496 0 0 0 0-.69L17.1 5.66c-.18-.2-.43-.19-.626 0l-4.13 4.06a.51.51 0 0 1-.688 0L7.53 5.653a.543.543 0 0 0-.343-.156z" opacity=".1" color="#000" fill="none" stroke="#000" stroke-linecap="round" stroke-linejoin="round" overflow="visible"/><path d="M17.624 7.71l-.86-.937-3.903 3.825c-.29.33-1.46.264-1.69.04l-3.92-3.88-.87.96m11.27 9.262l-4.17-4.103m-2.86-.04l-4.26 4.137" style="text-align:start;line-height:125%" font-size="59.901" font-weight="700" opacity=".03" color="#000" fill="none" stroke="#000" overflow="visible" font-family="Bitstream Vera Sans"/></svg>
